X:114
T:Reel St-Joseph
Z:robin.beech@mcgill.ca
M:4/4
L:1/8
K:D
d2fd cdec | defd A2dc | B2gf edcB | AaaA aABc |
d2fd cdec | defd A2dc | B2gf edcB |1 Afec d3A :|2 Afec d2Ad |:
fdfa fdfa | aggf g3f | edcB Aceg | baag a3g |
fdfa fdfa | aggf g3f | edcB Aceg |1 fdec d2ag :|2 fdec d3A |]

